src/assets/img/icons/duotone-icons/Devices/Headphones.svg

<?xml version="1.0" encoding="UTF-8"?>
<svg width="24px" height="24px" viewBox="0 0 24 24" version="1.1" xmlns="http://www.w3.org/2000/svg" xmlns:xlink="http://www.w3.org/1999/xlink">
    <!-- Generator: Sketch 52.2 (67145) - http://www.bohemiancoding.com/sketch -->
    <title>Stockholm-icons / Devices / Headphones</title>
    <desc>Created with Sketch.</desc>
    <g id="Stockholm-icons-/-Devices-/-Headphones" stroke="none" stroke-width="1" fill="none" fill-rule="evenodd">
        <rect id="bound" x="0" y="0" width="24" height="24"></rect>
        <path d="M19,16 L19,12 C19,8.13400675 15.8659932,5 12,5 C8.13400675,5 5,8.13400675 5,12 L5,16 L19,16 Z M21,16 L3,16 L3,12 C3,7.02943725 7.02943725,3 12,3 C16.9705627,3 21,7.02943725 21,12 L21,16 Z" id="Combined-Shape" fill="#335EEA" opacity="0.3"></path>
        <path d="M5,14 L6,14 C7.1045695,14 8,14.8954305 8,16 L8,19 C8,20.1045695 7.1045695,21 6,21 L5,21 C3.8954305,21 3,20.1045695 3,19 L3,16 C3,14.8954305 3.8954305,14 5,14 Z M18,14 L19,14 C20.1045695,14 21,14.8954305 21,16 L21,19 C21,20.1045695 20.1045695,21 19,21 L18,21 C16.8954305,21 16,20.1045695 16,19 L16,16 C16,14.8954305 16.8954305,14 18,14 Z" id="Combined-Shape" fill="#335EEA"></path>
    </g>
</svg>

<svg width="24" height="24" viewBox="0 0 24 24" xmlns="http://www.w3.org/2000/svg"><g fill="none" fill-rule="evenodd"><path d="M0 0h24v24H0z"/><path d="M19 16v-4a7 7 0 00-14 0v4h14zm2 0H3v-4a9 9 0 1118 0v4z" fill="#335EEA" opacity=".3"/><path d="M5 14h1a2 2 0 012 2v3a2 2 0 01-2 2H5a2 2 0 01-2-2v-3a2 2 0 012-2zm13 0h1a2 2 0 012 2v3a2 2 0 01-2 2h-1a2 2 0 01-2-2v-3a2 2 0 012-2z" fill="#335EEA"/></g></svg>
